X: 38456
T: Station Master's, The
R: waltz
M: 3/4
K: Gmajor
B>c|:d2 g3d|c6|B2 G2 B2|A4 G>A|B2 g3d|c2 B2 G2|A6-|A4 B>c|
d2 g3d|c6|B2 G2 B2|A2 G2 F/G/F|E2 c3B|A/B/A G2 F2|1 G6-|G4 B>c:|2 G6-|G3 A B>d||
|:e3c e>g|f2 e2 d2|d3B d>e|B2 c2 d2|c3B A>G|F2 e2 d2|d3e d>c|B2 c2 d2|
e3c e>g|f2 e2 d2|d2 B>d f/g/a|g2 d2 B>d|c2 E>G c>B|A2 G2 F2|1 G6-|G3A B>d:|2 G6-|yG4!D.C.!y||

